X:531
T:Hunt the Squirrel. (p)1709.PLFD1.531
M:6/4
L:1/4
Q:3/4=125
S:Playford, Dancing Master,14th.Ed.,1709.
O:English
Z:Chris Partington.
K:A
Ae2-e2f|e3c3|ABcB2A|ABcB2A|
Ae2-e2f|e3c3|ABcB2A|AA2-A3:|
|:d2efed|d2efed|d2ef2g|a3-a2g/f/|
ec2ec2|ec2e3|ABcB2A|AA2-A3:|
